X: 42111
T: Warbling Robin, The
R: barndance
M: 4/4
K: Gmajor
(3ABc||dBAE GEDB|dBAE GBdg|(3ege ef gbed|BA (3ABA A2ge|
dBAE GEDB|dBAE GBdg|(3ege ef gbed|1 deBA G2 ge:|2 deBA G2 (3DEG||
(3GGG Bd ggag|e2(3eee eg d2|bagd egae|
[1gedB (3ABA BA|(3GGG Bd ggag|e2(3ege edBA|(3GGG Bd gbed|deBA G2 (3DEF:|
[2gedB A2 (3ABc|dBAE GEDB|dBAE GBdg|(3ege ef gbed|deBA G2 z2||

